dist/images/car.svg

<svg  viewBox="0 0 75 42"  xmlns="http://www.w3.org/2000/svg">
<path d="M1 1L52.2258 1V32.9706H26.6129H21.183C20.4582 31.5497 19.298 30.3969 17.871 29.6813C15.7597 28.6226 13.2725 28.6226 11.1612 29.6813C9.73429 30.3969 8.57407 31.5497 7.84925 32.9706H1L1 1Z" stroke="white" stroke-width="2"/>
<path d="M19.3548 36.3971C19.3548 39.0773 17.1884 41.2501 14.5161 41.2501C11.8437 41.2501 9.67737 39.0773 9.67737 36.3971C9.67737 33.7169 11.8437 31.5442 14.5161 31.5442C17.1884 31.5442 19.3548 33.7169 19.3548 36.3971ZM12.0967 36.3971C12.0967 37.7372 13.1799 38.8236 14.5161 38.8236C15.8523 38.8236 16.9354 37.7372 16.9354 36.3971C16.9354 35.057 15.8523 33.9707 14.5161 33.9707C13.1799 33.9707 12.0967 35.057 12.0967 36.3971Z" fill="white"/>
<path d="M70.1613 36.3971C70.1613 39.0773 67.9949 41.2501 65.3226 41.2501C62.6503 41.2501 60.4839 39.0773 60.4839 36.3971C60.4839 33.7169 62.6503 31.5442 65.3226 31.5442C67.9949 31.5442 70.1613 33.7169 70.1613 36.3971ZM62.9032 36.3971C62.9032 37.7372 63.9864 38.8236 65.3226 38.8236C66.6588 38.8236 67.742 37.7372 67.742 36.3971C67.742 35.057 66.6588 33.9707 65.3226 33.9707C63.9864 33.9707 62.9032 35.057 62.9032 36.3971Z" fill="white"/>
<path d="M56.6451 5.85303L64.7865 5.85303L69.3285 12.686L74 19.7139V32.9707H71.9894C71.2646 31.5498 70.1044 30.397 68.6775 29.6814C66.5662 28.6227 64.079 28.6227 61.9677 29.6814C60.5407 30.397 59.3805 31.5498 58.6557 32.9707H56.6451L56.6451 5.85303Z" stroke="white" stroke-width="2"/>
<path d="M60 11C60 10.4477 60.4477 10 61 10H63.1958C63.5405 10 63.861 10.1776 64.0438 10.47L69.0438 18.47C69.46 19.1361 68.9812 20 68.1958 20H61C60.4477 20 60 19.5523 60 19V15V11Z" fill="white"/>
<path d="M19.8057 16.4883C17.8419 14.5246 17.8419 11.3407 19.8057 9.37691C21.7695 7.41315 24.9534 7.41315 26.9171 9.37691L35.0444 17.5042L27.933 24.6156L19.8057 16.4883Z" fill="white"/>
<path d="M28.9489 9.37675C30.9127 7.41299 34.0966 7.41299 36.0603 9.37675C38.0241 11.3405 38.0241 14.5244 36.0603 16.4881L27.933 24.6155L20.8216 17.5041L28.9489 9.37675Z" fill="white"/>
</svg>

<svg viewBox="0 0 75 42" xmlns="http://www.w3.org/2000/svg"><path d="M1 1h51.226v31.97H21.183a7.484 7.484 0 00-13.334 0H1V1z" stroke="#fff" stroke-width="2"/><path d="M19.355 36.397a4.846 4.846 0 01-4.839 4.853 4.846 4.846 0 01-4.839-4.853 4.846 4.846 0 014.84-4.853 4.846 4.846 0 014.838 4.853zm-7.258 0a2.423 2.423 0 002.42 2.427 2.423 2.423 0 002.418-2.427 2.423 2.423 0 00-2.419-2.426 2.423 2.423 0 00-2.42 2.426zm58.064 0a4.846 4.846 0 01-4.838 4.853 4.846 4.846 0 01-4.84-4.853 4.846 4.846 0 014.84-4.853 4.846 4.846 0 014.838 4.853zm-7.258 0a2.423 2.423 0 002.42 2.427 2.423 2.423 0 002.419-2.427 2.423 2.423 0 00-2.42-2.426 2.423 2.423 0 00-2.419 2.426z" fill="#fff"/><path d="M56.645 5.853h8.142l4.541 6.833L74 19.714V32.97h-2.01a7.484 7.484 0 00-13.334 0h-2.01V5.853z" stroke="#fff" stroke-width="2"/><path d="M60 11a1 1 0 011-1h2.196a1 1 0 01.848.47l5 8a1 1 0 01-.848 1.53H61a1 1 0 01-1-1v-8zm-40.194 5.488a5.028 5.028 0 117.111-7.111l8.127 8.127-7.111 7.112-8.127-8.128z" fill="#fff"/><path d="M28.949 9.377a5.029 5.029 0 017.111 7.111l-8.127 8.128-7.111-7.112 8.127-8.127z" fill="#fff"/></svg>
